X: 2
T: St. Kilda Wedding
R: reel
M: 4/4
L: 1/8
K: Gmaj
G2GB GBdB|A2BG E2DE|G2BA GBdB|1 e2ed edeg:|2 e2ed edef|]g2ga gddg|efgf e2dc|Bdef gfeg|dBgB A2BA|Gggf gddg|efgf e2dc|Bdef gfeg|dBgB A2BA|]


Tune 1606	Setting 25696

